X: 29652
T: Northern, The
R: jig
M: 6/8
K: Aminor
|:~A,3 G,2B,|A,B,B, ~C3|DCD E^F^F|~G3 EDB,|
~A,3 G,2B,|A,B,B, ~C3|DCD E^FE|DCB, ~A,3:|
|:E2A AGA|E^FE D2G|E^FG G^FG|BGG AG^F|
E2A AGA|E^FE D2G|E^FG G^FG|EDB,A,3:|

